X:56
T:Rettraitten vid Fredrichshamn
T:Långdans ur Magnus Theorins notbok (SmM X-56)
R:Långdans
O:Växjö, Småland
S:Magnus Theorin
B:Småländsk Musiktradition
N:1792
M:2/4
L:1/8
K:A
E|:AA/B/ AA/B/|c2 AE|AA/B/ AA/B/|c2 AE|Ac cB|BA AG|
GF E=D|1E2 zE:|2E2 z2]|:E2 GB|d3 B|c2 Ac|c2 B2|
E2 GB|d3 B|cA GB|A2 z2::(E/A/G/A/) B/A/G/F/|FE E2|dB B2|
cA A2|(E/A/G/A/) B/A/G/F/|FE E2|cB AB|A2 z2:|

